X:27
T:Ewe Reel
S:Trad, arr. Paddy O'Brien 
R:reel
E:9
I:speed 350
M:C|
K:DMix
F|DG~G2 DGGE|~=F2 AF cFAF|DGGF ~G2 eg|fdcA BGAF|\
DG~G2 DGGE|~=F2 AF cFAF|DGGF ~G2eg|fdcA BGG:|\
f|~g2 bg dgbg|~f2 af dfaf|~g2bg dgbg|agfa ~g2 ga|\
bgaf gfde|fdcA BGAF|Gggf gbag|fdcA BGG2:|**


\vfill\eject

